public/fram_mor_fylkeskommune.svg

<svg width="180" height="48" viewBox="0 0 180 48" fill="none" xmlns="http://www.w3.org/2000/svg">
<g clip-path="url(#clip0_488_3210)">
<path d="M0.332031 40.523H1.72903L3.41903 45.293L5.33603 40.523H6.67603V46.199H5.57603V43.352L5.61103 42.189L4.04403 46.199H2.73403L1.35403 42.13L1.42503 43.352V46.2H0.332031V40.523Z" fill="#FEFEFE"/>
<path fill-rule="evenodd" clip-rule="evenodd" d="M7.63379 46.06L8.15979 45.504C7.90279 45.135 7.76279 44.644 7.76279 44.048C7.76279 42.575 8.64479 41.715 9.94879 41.715C10.5418 41.715 11.0078 41.851 11.3468 42.125L11.8258 41.615L12.1708 41.961L11.6968 42.475C11.9548 42.861 12.0828 43.375 12.0828 44.007C12.0828 45.521 11.1528 46.293 9.88479 46.293C9.31179 46.293 8.84979 46.135 8.50479 45.866L7.99679 46.404L7.63379 46.059V46.06ZM10.6508 42.838C10.4928 42.668 10.2528 42.563 9.91979 42.563C9.07179 42.563 8.83779 43.264 8.83779 44.019C8.83779 44.259 8.86179 44.499 8.94379 44.691L10.6508 42.838ZM10.9958 44.013C10.9958 43.767 10.9718 43.516 10.8898 43.305L9.17179 45.16C9.34679 45.33 9.58679 45.435 9.93179 45.435C10.7848 45.435 10.9958 44.808 10.9958 44.013Z" fill="#FEFEFE"/>
<path d="M13.0713 41.814H14.1413V42.404C14.3513 42.107 14.7733 41.727 15.3223 41.727C15.5683 41.727 15.7493 41.75 15.8893 41.803L15.7373 42.685C15.5528 42.6474 15.3645 42.632 15.1763 42.639C14.7323 42.639 14.3343 42.89 14.1413 43.136V46.199H13.0713V41.814Z" fill="#FEFEFE"/>
<path fill-rule="evenodd" clip-rule="evenodd" d="M16.0762 44.083C16.0762 42.288 16.9832 41.715 18.2222 41.715C19.4912 41.715 20.0052 42.545 20.0052 43.919V44.305H17.1462C17.1462 45.27 17.7482 45.433 18.5262 45.433C18.8302 45.433 19.3512 45.328 19.7132 45.252L19.8832 46.082C19.379 46.2254 18.8573 46.2981 18.3332 46.298C16.9532 46.298 16.0762 45.802 16.0762 44.083ZM18.9062 43.592C18.9122 42.931 18.6432 42.475 18.1162 42.475C17.5792 42.475 17.2162 42.867 17.1702 43.592H18.9062ZM22.5902 44.048C22.5902 42.574 23.4722 41.703 24.7762 41.703C26.2382 41.703 26.9102 42.563 26.9102 44.007C26.9102 45.521 25.9802 46.298 24.7122 46.298C23.3552 46.298 22.5902 45.445 22.5902 44.048ZM25.8292 44.007C25.8292 43.264 25.6192 42.557 24.7532 42.557C23.8992 42.557 23.6652 43.264 23.6652 44.018C23.6652 44.831 23.9292 45.439 24.7652 45.439C25.6182 45.439 25.8292 44.802 25.8292 44.007ZM27.9572 47.772L28.1322 46.907C28.5352 46.994 29.1262 47.082 29.4652 47.082C30.1372 47.082 30.5992 46.988 30.5992 46.217V45.983C30.3625 46.1696 30.0705 46.2723 29.7692 46.275C28.7632 46.275 27.6352 46.018 27.6352 44.03C27.6352 42.498 28.6752 41.703 29.9382 41.703C30.5582 41.703 31.0382 41.785 31.6582 41.908V46.328C31.6582 47.532 30.6112 48 29.6232 48C28.9562 48 28.3432 47.871 27.9572 47.772ZM30.5872 45.246V42.674C30.4122 42.639 30.2252 42.586 29.9332 42.586C29.0562 42.586 28.6992 43.188 28.6992 44.042C28.6992 45.082 29.1262 45.439 29.8332 45.439C30.1372 45.439 30.3882 45.339 30.5872 45.246ZM37.7552 45.147L36.9602 44.107C36.8285 44.1237 36.6959 44.1314 36.5632 44.13H36.0072V46.2H34.9082V40.522H36.9842C38.1882 40.522 39.0362 41.084 39.0362 42.306C39.0362 42.949 38.7322 43.528 38.0662 43.849L38.7662 44.714C39.1002 45.124 39.4802 45.328 39.9772 45.457L39.7372 46.299C38.9252 46.258 38.3052 45.843 37.7552 45.147ZM36.6102 43.33C37.4472 43.33 37.9082 43.014 37.9082 42.348C37.9082 41.658 37.5872 41.395 36.8042 41.395H36.0082V43.33H36.6102ZM40.4272 44.048C40.4272 42.574 41.3102 41.703 42.6142 41.703C44.0762 41.703 44.7482 42.563 44.7482 44.007C44.7482 45.521 43.8182 46.298 42.5502 46.298C41.1932 46.298 40.4272 45.445 40.4272 44.048ZM43.6672 44.007C43.6672 43.264 43.4562 42.557 42.5902 42.557C41.7372 42.557 41.5032 43.264 41.5032 44.018C41.5032 44.831 41.7662 45.439 42.6032 45.439C43.4562 45.439 43.6672 44.802 43.6672 44.007Z" fill="#FEFEFE"/>
<path d="M45.7363 41.814H46.8063V42.288C47.1683 42.001 47.6943 41.703 48.2263 41.703C48.8763 41.703 49.2673 41.973 49.4483 42.363C49.7823 42.066 50.3603 41.703 50.9803 41.703C52.3543 41.703 52.3723 42.673 52.3723 43.422V46.199H51.3023V43.545C51.3023 42.948 51.1733 42.639 50.6123 42.639C50.2493 42.639 49.8463 42.814 49.5593 42.995C49.5773 43.135 49.5833 43.275 49.5833 43.416V46.2H48.5253V43.546C48.5253 42.908 48.4023 42.646 47.8463 42.646C47.5023 42.646 47.0863 42.821 46.8063 42.996V46.2H45.7363V41.814ZM53.3133 46.111L53.4363 45.287C53.8983 45.357 54.3483 45.433 54.6813 45.433C55.3653 45.433 55.5703 45.223 55.5703 44.983C55.5703 44.305 53.3603 44.568 53.3603 43.019C53.3603 42.136 54.1603 41.703 55.0793 41.703C55.5933 41.703 56.0553 41.808 56.3943 41.931L56.2193 42.726C55.8743 42.644 55.5413 42.563 55.0793 42.563C54.5873 42.563 54.4243 42.779 54.4243 42.966C54.4243 43.662 56.6163 43.469 56.6163 44.925C56.6163 46.024 55.5173 46.298 54.7863 46.298C54.1663 46.298 53.6813 46.217 53.3133 46.111Z" fill="#FEFEFE"/>
<path fill-rule="evenodd" clip-rule="evenodd" d="M57.2998 43.966C57.2998 42.457 58.3118 41.703 59.5688 41.703C59.8728 41.703 60.0538 41.738 60.2588 41.779V40.148H61.3228V46.199H60.2588V45.849C60.0418 46.029 59.7438 46.275 59.2118 46.275C58.3698 46.275 57.2998 45.89 57.2998 43.966ZM60.2598 45.1V42.644C60.0384 42.5845 59.81 42.5552 59.5808 42.557C58.7158 42.557 58.3708 43.177 58.3708 43.995C58.3708 45.035 58.8268 45.381 59.4008 45.381C59.7108 45.381 60.0668 45.205 60.2598 45.1ZM62.2758 44.983C62.2758 43.878 63.2698 43.656 64.0818 43.65L64.9478 43.638V43.252C64.9478 42.75 64.6548 42.627 64.0238 42.627C63.6088 42.627 63.1238 42.738 62.8018 42.82L62.5858 42.025C63.1061 41.8246 63.6583 41.7196 64.2158 41.715C65.4268 41.715 65.9938 42.071 65.9938 43.013V45.147C65.9938 45.357 66.1698 45.404 66.3918 45.422L66.3448 46.24H66.1108C65.6428 46.24 65.1408 46.129 65.0408 45.743C64.7608 45.953 64.3158 46.275 63.6788 46.275C62.7898 46.275 62.2758 45.825 62.2758 44.983ZM64.9478 45.158V44.288L64.1348 44.322C63.6318 44.328 63.3108 44.539 63.3108 44.902C63.3108 45.287 63.5858 45.433 63.9188 45.433C64.2868 45.433 64.7188 45.229 64.9478 45.158Z" fill="#FEFEFE"/>
<path d="M67.4385 40.148H68.5085V46.199H67.4385V40.148ZM71.7415 42.586H71.0985V41.814H71.7415V41.51C71.7415 40.265 72.4965 39.943 73.3675 39.943C73.6775 39.943 73.8815 39.978 74.1095 40.049L73.9345 40.902C73.7627 40.8729 73.5887 40.8595 73.4145 40.862C72.9925 40.862 72.8175 41.101 72.8175 41.569V41.814H73.7585V42.586H72.8175V47.801H71.7415V42.586ZM75.9505 46.2H75.5415L74.0745 41.814H75.2205L76.0565 44.621L76.2555 45.357L76.4895 44.627L77.4425 41.814H78.5295L76.3835 47.971H75.3545L75.9515 46.199L75.9505 46.2ZM79.2545 40.148H80.3185V46.199H79.2545V40.148ZM81.5755 40.148H82.6395V43.726L84.1595 41.826H85.3295L83.6395 43.849L84.3595 44.714C84.7035 45.118 85.0195 45.357 85.4575 45.48L85.3175 46.293C84.7675 46.258 84.2245 46.176 83.6625 45.445L82.6395 44.124V46.199H81.5755V40.148Z" fill="#FEFEFE"/>
<path fill-rule="evenodd" clip-rule="evenodd" d="M85.96 44.083C85.96 42.288 86.866 41.715 88.1 41.715C89.369 41.715 89.883 42.545 89.883 43.919V44.305H87.024C87.024 45.27 87.626 45.433 88.41 45.433C88.714 45.433 89.234 45.328 89.597 45.252L89.766 46.082C89.2618 46.2254 88.7401 46.2981 88.216 46.298C86.831 46.298 85.96 45.802 85.96 44.083ZM88.784 43.592C88.79 42.931 88.527 42.475 88 42.475C87.457 42.475 87.1 42.867 87.047 43.592H88.784Z" fill="#FEFEFE"/>
<path d="M90.5605 46.111L90.6896 45.287C91.1456 45.357 91.5955 45.433 91.9345 45.433C92.6125 45.433 92.8176 45.223 92.8176 44.983C92.8176 44.305 90.6076 44.568 90.6076 43.019C90.6076 42.136 91.4086 41.703 92.3266 41.703C92.8406 41.703 93.3085 41.808 93.6415 41.931L93.4666 42.726C93.1216 42.644 92.7946 42.563 92.3266 42.563C91.8356 42.563 91.6776 42.779 91.6776 42.966C91.6776 43.662 93.8696 43.469 93.8696 44.925C93.8696 46.024 92.7706 46.298 92.0396 46.298C91.5403 46.3043 91.0425 46.2414 90.5605 46.111ZM94.8176 40.148H95.8876V43.726L97.4016 41.826H98.5766L96.8805 43.849L97.6056 44.714C97.9506 45.118 98.2606 45.357 98.7056 45.48L98.5585 46.293C98.0155 46.258 97.4655 46.176 96.9045 45.445L95.8876 44.124V46.199H94.8176V40.148Z" fill="#FEFEFE"/>
<path fill-rule="evenodd" clip-rule="evenodd" d="M99.2021 44.048C99.2021 42.574 100.085 41.703 101.389 41.703C102.851 41.703 103.523 42.563 103.523 44.007C103.523 45.521 102.593 46.298 101.325 46.298C99.9621 46.298 99.2021 45.445 99.2021 44.048ZM102.441 44.007C102.441 43.264 102.231 42.557 101.36 42.557C100.512 42.557 100.278 43.264 100.278 44.018C100.278 44.831 100.541 45.439 101.377 45.439C102.231 45.439 102.441 44.802 102.441 44.007Z" fill="#FEFEFE"/>
<path d="M104.511 41.814H105.581V42.288C105.938 42.001 106.47 41.703 107.002 41.703C107.651 41.703 108.042 41.973 108.224 42.363C108.557 42.066 109.136 41.703 109.755 41.703C111.129 41.703 111.147 42.673 111.147 43.422V46.199H110.077V43.545C110.077 42.948 109.948 42.639 109.387 42.639C109.025 42.639 108.621 42.814 108.335 42.995C108.352 43.135 108.358 43.275 108.358 43.416V46.2H107.3V43.546C107.3 42.908 107.177 42.646 106.622 42.646C106.277 42.646 105.862 42.821 105.581 42.996V46.2H104.511V41.814ZM112.375 41.814H113.439V42.288C113.801 42.001 114.333 41.703 114.865 41.703C115.514 41.703 115.906 41.973 116.081 42.363C116.421 42.066 116.999 41.703 117.619 41.703C118.993 41.703 119.005 42.673 119.005 43.422V46.199H117.941V43.545C117.941 42.948 117.812 42.639 117.251 42.639C116.888 42.639 116.485 42.814 116.198 42.995C116.21 43.135 116.222 43.275 116.222 43.416V46.2H115.158V43.546C115.158 42.908 115.041 42.646 114.485 42.646C114.14 42.646 113.725 42.821 113.439 42.996V46.2H112.375V41.814ZM120.221 44.568V41.815H121.291V44.451C121.291 45.083 121.396 45.357 121.969 45.357C122.431 45.357 122.904 45.124 123.109 45.013V41.815H124.179V46.199H123.109V45.726C122.822 45.936 122.261 46.299 121.636 46.299C120.314 46.299 120.221 45.468 120.221 44.568ZM125.424 41.814H126.494V42.282C126.816 42.048 127.353 41.703 127.961 41.703C129.306 41.703 129.394 42.516 129.394 43.422V46.199H128.33V43.545C128.33 42.878 128.201 42.639 127.617 42.639C127.178 42.639 126.757 42.837 126.494 42.983V46.2H125.424V41.814Z" fill="#FEFEFE"/>
<path fill-rule="evenodd" clip-rule="evenodd" d="M130.359 44.083C130.359 42.288 131.265 41.715 132.498 41.715C133.767 41.715 134.282 42.545 134.282 43.919V44.305H131.423C131.423 45.27 132.025 45.433 132.808 45.433C133.112 45.433 133.633 45.328 133.995 45.252L134.165 46.082C133.661 46.2254 133.14 46.2981 132.615 46.298C131.23 46.298 130.359 45.802 130.359 44.083ZM133.183 43.592C133.194 42.931 132.925 42.475 132.399 42.475C131.855 42.475 131.499 42.867 131.446 43.592H133.183Z" fill="#FEFEFE"/>
<path d="M69.5077 -0.0299988H80.4466L94.1866 35.29H85.5387L75.1497 6.314L66.4097 35.29H59.2946L59.0146 30.747L69.5077 -0.0299988Z" fill="#FEFEFE"/>
<path fill-rule="evenodd" clip-rule="evenodd" d="M8.85033 35.29H0.361328V-0.0299988H28.5063L26.4253 6.618H8.85033V35.29ZM21.1633 23.082V16.937H8.85033V23.082H21.1633Z" fill="#FEFEFE"/>
<path fill-rule="evenodd" clip-rule="evenodd" d="M45.0927 27.7L41.0927 23.053C40.4917 23.1 39.8487 23.1 39.1927 23.1H36.5977V35.29H28.0557V-0.0299988H41.7957C49.7357 -0.0299988 55.4297 3.619 55.4297 11.512C55.4297 15.458 53.5347 18.908 49.7347 21.053L53.3307 24.953C55.2827 27.046 57.3237 28.263 62.3507 28.607L59.6157 35.29C52.3777 35.29 48.7877 31.998 45.0927 27.7ZM39.4917 17.16C44.5427 17.16 46.6887 15.055 46.6887 11.71C46.6887 8.168 45.2387 6.665 40.6957 6.665H36.5977V17.16H39.4917Z" fill="#FEFEFE"/>
<path d="M92.9531 -0.0299988H103.295L113.135 27.7L124.43 -0.0299988H134.27V35.29H125.775V22.152L126.026 13.862L117.637 35.29H108.142L100.898 13.26L101.448 22.152V35.29H92.9531V-0.0299988Z" fill="#FEFEFE"/>
<path fill-rule="evenodd" clip-rule="evenodd" d="M179.838 0.669995C180.266 17.554 180.635 32.074 161.836 46.299C143.033 32.07 143.406 17.546 143.841 0.657995L143.858 -0.0180054H179.82L179.838 0.669995ZM162.374 14.686V21.685C162.373 23.4115 162.936 25.0911 163.976 26.469C165.017 27.8469 166.478 28.8478 168.139 29.32H168.133C168.134 30.1532 167.97 30.9785 167.652 31.7484C167.333 32.5184 166.866 33.2181 166.277 33.8073C165.688 34.3965 164.988 34.8638 164.218 35.1824C163.448 35.501 162.623 35.6647 161.79 35.664C160.957 35.6644 160.132 35.5006 159.362 35.1819C158.592 34.8632 157.892 34.3959 157.303 33.8068C156.714 33.2176 156.247 32.5181 155.928 31.7482C155.609 30.9783 155.446 30.1532 155.446 29.32C157.107 28.8478 158.568 27.8469 159.609 26.469C160.649 25.0911 161.212 23.4115 161.211 21.685V14.686H156.545V13.517H161.211V10.185H162.374V13.517H167.034V14.687H162.374V14.686ZM153.861 14.084V7.08599H158.521V5.91599H153.861V2.58499H152.698V5.91799H148.032V7.08699H152.698V14.085C152.698 15.8101 152.135 17.4882 151.095 18.8642C150.054 20.2403 148.593 21.2391 146.933 21.709V21.715C146.933 22.549 147.097 23.3748 147.416 24.1453C147.735 24.9159 148.203 25.616 148.792 26.2057C149.382 26.7954 150.082 27.2631 150.853 27.5822C151.623 27.9012 152.449 28.0653 153.283 28.065C154.966 28.0631 156.579 27.3933 157.769 26.2027C158.958 25.012 159.626 23.3979 159.626 21.715V21.709C157.966 21.2391 156.505 20.2403 155.464 18.8642C154.424 17.4882 153.861 15.8101 153.861 14.085V14.084ZM169.723 7.08599V14.084C169.723 15.8091 169.16 17.4872 168.12 18.8632C167.079 20.2393 165.618 21.2381 163.958 21.708V21.714C163.958 22.548 164.122 23.3738 164.441 24.1443C164.76 24.9149 165.228 25.615 165.817 26.2047C166.407 26.7944 167.107 27.2621 167.878 27.5812C168.648 27.9002 169.474 28.0643 170.308 28.064C171.991 28.0621 173.604 27.3923 174.794 26.2016C175.983 25.011 176.651 23.3969 176.651 21.714V21.708C174.991 21.2379 173.53 20.239 172.49 18.863C171.45 17.487 170.887 15.809 170.887 14.084V7.08599H175.552V5.91599H170.887V2.58499H169.723V5.91799H165.063V7.08699L169.723 7.08599Z" fill="#FEFEFE"/>
</g>
<defs>
<clipPath id="clip0_488_3210">
<rect width="180" height="48" fill="white"/>
</clipPath>
</defs>
</svg>

<svg xmlns="http://www.w3.org/2000/svg" width="180" height="48" fill="none">
  <path fill="#FEFEFE"
    d="M.332 40.523h1.397l1.69 4.77 1.917-4.77h1.34v5.676h-1.1v-2.847l.035-1.163-1.567 4.01h-1.31l-1.38-4.069.071 1.222V46.2H.332v-5.676Z" />
  <path fill="#FEFEFE" fill-rule="evenodd"
    d="m7.634 46.06.526-.556c-.257-.369-.397-.86-.397-1.456 0-1.473.882-2.333 2.186-2.333.593 0 1.059.136 1.398.41l.479-.51.345.346-.474.514c.258.386.386.9.386 1.532 0 1.514-.93 2.286-2.198 2.286-.573 0-1.035-.158-1.38-.427l-.508.538-.363-.345Zm3.017-3.222c-.158-.17-.398-.275-.731-.275-.848 0-1.082.701-1.082 1.456 0 .24.024.48.106.672l1.707-1.853Zm.345 1.175c0-.246-.024-.497-.106-.708L9.172 45.16c.175.17.415.275.76.275.853 0 1.064-.626 1.064-1.421Z"
    clip-rule="evenodd" />
  <path fill="#FEFEFE"
    d="M13.071 41.814h1.07v.59c.21-.297.632-.677 1.181-.677.246 0 .427.023.567.076l-.152.882a2.37 2.37 0 0 0-.561-.046c-.444 0-.842.251-1.035.497v3.063h-1.07v-4.385Z" />
  <path fill="#FEFEFE" fill-rule="evenodd"
    d="M16.076 44.083c0-1.795.907-2.368 2.146-2.368 1.269 0 1.783.83 1.783 2.204v.386h-2.859c0 .965.602 1.128 1.38 1.128.304 0 .825-.105 1.187-.181l.17.83a5.66 5.66 0 0 1-1.55.216c-1.38 0-2.257-.496-2.257-2.215Zm2.83-.491c.006-.661-.263-1.117-.79-1.117-.537 0-.9.392-.946 1.117h1.736ZM22.59 44.048c0-1.474.882-2.345 2.186-2.345 1.462 0 2.134.86 2.134 2.304 0 1.514-.93 2.291-2.198 2.291-1.357 0-2.122-.853-2.122-2.25Zm3.239-.041c0-.743-.21-1.45-1.076-1.45-.854 0-1.088.707-1.088 1.461 0 .813.264 1.421 1.1 1.421.853 0 1.064-.637 1.064-1.432ZM27.957 47.772l.175-.865c.403.087.994.175 1.333.175.672 0 1.134-.094 1.134-.865v-.234a1.36 1.36 0 0 1-.83.292c-1.006 0-2.134-.257-2.134-2.245 0-1.532 1.04-2.327 2.303-2.327.62 0 1.1.082 1.72.205v4.42c0 1.204-1.047 1.672-2.035 1.672-.667 0-1.28-.129-1.666-.228Zm2.63-2.526v-2.572c-.175-.035-.362-.088-.654-.088-.877 0-1.234.602-1.234 1.456 0 1.04.427 1.397 1.134 1.397.304 0 .556-.1.755-.193ZM37.755 45.147l-.795-1.04a2.913 2.913 0 0 1-.397.023h-.556v2.07h-1.099v-5.678h2.076c1.204 0 2.052.562 2.052 1.784 0 .643-.304 1.222-.97 1.543l.7.865c.334.41.714.614 1.211.743l-.24.842c-.812-.041-1.432-.456-1.982-1.152ZM36.61 43.33c.837 0 1.298-.316 1.298-.982 0-.69-.321-.953-1.104-.953h-.796v1.935h.602ZM40.427 44.048c0-1.474.883-2.345 2.187-2.345 1.462 0 2.134.86 2.134 2.304 0 1.514-.93 2.291-2.198 2.291-1.357 0-2.123-.853-2.123-2.25Zm3.24-.041c0-.743-.211-1.45-1.077-1.45-.853 0-1.087.707-1.087 1.461 0 .813.263 1.421 1.1 1.421.853 0 1.063-.637 1.063-1.432Z"
    clip-rule="evenodd" />
  <path fill="#FEFEFE"
    d="M45.736 41.814h1.07v.474c.362-.287.888-.585 1.42-.585.65 0 1.041.27 1.222.66.334-.297.912-.66 1.532-.66 1.374 0 1.392.97 1.392 1.719v2.777h-1.07v-2.654c0-.597-.129-.906-.69-.906-.363 0-.766.175-1.053.356.018.14.024.28.024.421V46.2h-1.058v-2.654c0-.638-.123-.9-.679-.9-.344 0-.76.175-1.04.35V46.2h-1.07v-4.385ZM53.313 46.111l.123-.824c.462.07.912.146 1.245.146.684 0 .889-.21.889-.45 0-.678-2.21-.415-2.21-1.964 0-.883.8-1.316 1.719-1.316.514 0 .976.105 1.315.228l-.175.795c-.345-.082-.678-.163-1.14-.163-.492 0-.655.216-.655.403 0 .696 2.192.503 2.192 1.959 0 1.099-1.099 1.373-1.83 1.373-.62 0-1.105-.081-1.473-.187Z" />
  <path fill="#FEFEFE" fill-rule="evenodd"
    d="M57.3 43.966c0-1.509 1.012-2.263 2.269-2.263.304 0 .485.035.69.076v-1.631h1.064v6.051h-1.064v-.35c-.217.18-.515.426-1.047.426-.842 0-1.912-.386-1.912-2.31ZM60.26 45.1v-2.456a2.54 2.54 0 0 0-.679-.087c-.865 0-1.21.62-1.21 1.438 0 1.04.456 1.386 1.03 1.386.31 0 .666-.176.859-.281ZM62.276 44.983c0-1.105.994-1.327 1.806-1.333l.866-.012v-.386c0-.502-.293-.625-.924-.625-.415 0-.9.111-1.222.193l-.216-.795a4.64 4.64 0 0 1 1.63-.31c1.211 0 1.778.356 1.778 1.298v2.134c0 .21.176.257.398.275l-.047.818h-.234c-.468 0-.97-.111-1.07-.497-.28.21-.725.532-1.362.532-.889 0-1.403-.45-1.403-1.292Zm2.672.175v-.87l-.813.034c-.503.006-.824.217-.824.58 0 .385.275.531.608.531.368 0 .8-.204 1.029-.275Z"
    clip-rule="evenodd" />
  <path fill="#FEFEFE"
    d="M67.438 40.148h1.07v6.051h-1.07v-6.051ZM71.741 42.586h-.643v-.772h.643v-.304c0-1.245.755-1.567 1.626-1.567.31 0 .514.035.742.106l-.175.853a2.868 2.868 0 0 0-.52-.04c-.422 0-.597.239-.597.707v.245h.941v.772h-.941v5.215h-1.076v-5.215ZM75.95 46.2h-.409l-1.467-4.386h1.146l.836 2.807.199.736.234-.73.953-2.813h1.087l-2.146 6.157h-1.029l.597-1.772ZM79.254 40.148h1.064v6.051h-1.064v-6.051ZM81.575 40.148h1.064v3.578l1.52-1.9h1.17l-1.69 2.023.72.865c.344.404.66.643 1.098.766l-.14.813c-.55-.035-1.093-.117-1.655-.848l-1.023-1.321v2.075h-1.064v-6.051Z" />
  <path fill="#FEFEFE" fill-rule="evenodd"
    d="M85.96 44.083c0-1.795.906-2.368 2.14-2.368 1.269 0 1.783.83 1.783 2.204v.386h-2.859c0 .965.602 1.128 1.386 1.128.304 0 .824-.105 1.187-.181l.169.83a5.66 5.66 0 0 1-1.55.216c-1.385 0-2.256-.496-2.256-2.215Zm2.824-.491c.006-.661-.257-1.117-.784-1.117-.543 0-.9.392-.953 1.117h1.737Z"
    clip-rule="evenodd" />
  <path fill="#FEFEFE"
    d="m90.561 46.111.129-.824c.456.07.906.146 1.245.146.678 0 .883-.21.883-.45 0-.678-2.21-.415-2.21-1.964 0-.883.801-1.316 1.719-1.316.514 0 .982.105 1.315.228l-.175.795c-.345-.082-.672-.163-1.14-.163-.491 0-.649.216-.649.403 0 .696 2.192.503 2.192 1.959 0 1.099-1.099 1.373-1.83 1.373a5.4 5.4 0 0 1-1.479-.187ZM94.818 40.148h1.07v3.578l1.514-1.9h1.175l-1.696 2.023.725.865c.345.404.655.643 1.1.766l-.147.813c-.543-.035-1.093-.117-1.654-.848l-1.017-1.321v2.075h-1.07v-6.051Z" />
  <path fill="#FEFEFE" fill-rule="evenodd"
    d="M99.202 44.048c0-1.474.883-2.345 2.187-2.345 1.462 0 2.134.86 2.134 2.304 0 1.514-.93 2.291-2.198 2.291-1.363 0-2.123-.853-2.123-2.25Zm3.239-.041c0-.743-.21-1.45-1.081-1.45-.848 0-1.082.707-1.082 1.461 0 .813.263 1.421 1.099 1.421.854 0 1.064-.637 1.064-1.432Z"
    clip-rule="evenodd" />
  <path fill="#FEFEFE"
    d="M104.511 41.814h1.07v.474c.357-.287.889-.585 1.421-.585.649 0 1.04.27 1.222.66.333-.297.912-.66 1.531-.66 1.374 0 1.392.97 1.392 1.719v2.777h-1.07v-2.654c0-.597-.129-.906-.69-.906-.362 0-.766.175-1.052.356.017.14.023.28.023.421V46.2H107.3v-2.654c0-.638-.123-.9-.678-.9-.345 0-.76.175-1.041.35V46.2h-1.07v-4.385ZM112.375 41.814h1.064v.474c.362-.287.894-.585 1.426-.585.649 0 1.041.27 1.216.66.34-.297.918-.66 1.538-.66 1.374 0 1.386.97 1.386 1.719v2.777h-1.064v-2.654c0-.597-.129-.906-.69-.906-.363 0-.766.175-1.053.356.012.14.024.28.024.421V46.2h-1.064v-2.654c0-.638-.117-.9-.673-.9-.345 0-.76.175-1.046.35V46.2h-1.064v-4.385ZM120.221 44.568v-2.753h1.07v2.636c0 .632.105.906.678.906.462 0 .935-.233 1.14-.344v-3.198h1.07v4.384h-1.07v-.473c-.287.21-.848.573-1.473.573-1.322 0-1.415-.83-1.415-1.73ZM125.424 41.814h1.07v.468c.322-.234.859-.579 1.467-.579 1.345 0 1.433.813 1.433 1.719v2.777h-1.064v-2.654c0-.667-.129-.906-.713-.906-.439 0-.86.198-1.123.344V46.2h-1.07v-4.385Z" />
  <path fill="#FEFEFE" fill-rule="evenodd"
    d="M130.359 44.083c0-1.795.906-2.368 2.139-2.368 1.269 0 1.784.83 1.784 2.204v.386h-2.859c0 .965.602 1.128 1.385 1.128.304 0 .825-.105 1.187-.181l.17.83a5.664 5.664 0 0 1-1.55.216c-1.385 0-2.256-.496-2.256-2.215Zm2.824-.491c.011-.661-.258-1.117-.784-1.117-.544 0-.9.392-.953 1.117h1.737Z"
    clip-rule="evenodd" />
  <path fill="#FEFEFE"
    d="M69.508-.03h10.939l13.74 35.32h-8.648L75.15 6.314 66.41 35.29h-7.115l-.28-4.543L69.507-.03Z" />
  <path fill="#FEFEFE" fill-rule="evenodd"
    d="M8.85 35.29H.361V-.03h28.145l-2.081 6.648H8.85V35.29Zm12.313-12.208v-6.145H8.85v6.145h12.313Z"
    clip-rule="evenodd" />
  <path fill="#FEFEFE" fill-rule="evenodd"
    d="m45.093 27.7-4-4.647c-.601.047-1.244.047-1.9.047h-2.595v12.19h-8.542V-.03h13.74c7.94 0 13.634 3.649 13.634 11.542 0 3.946-1.895 7.396-5.695 9.541l3.596 3.9c1.952 2.093 3.993 3.31 9.02 3.654l-2.735 6.683c-7.238 0-10.828-3.292-14.523-7.59Zm-5.601-10.54c5.051 0 7.197-2.105 7.197-5.45 0-3.542-1.45-5.045-5.993-5.045h-4.098V17.16h2.894Z"
    clip-rule="evenodd" />
  <path fill="#FEFEFE"
    d="M92.953-.03h10.342l9.84 27.73L124.43-.03h9.84v35.32h-8.495V22.152l.251-8.29-8.389 21.428h-9.495l-7.244-22.03.55 8.892V35.29h-8.495V-.03Z" />
  <path fill="#FEFEFE" fill-rule="evenodd"
    d="M179.838.67c.428 16.884.797 31.404-18.002 45.629-18.803-14.229-18.43-28.753-17.995-45.641l.017-.676h35.962l.018.689Zm-17.464 14.016v6.999a7.935 7.935 0 0 0 5.765 7.635h-.006a6.338 6.338 0 0 1-6.343 6.344 6.341 6.341 0 0 1-6.344-6.344 7.935 7.935 0 0 0 5.765-7.635v-6.999h-4.666v-1.169h4.666v-3.332h1.163v3.332h4.66v1.17h-4.66Zm-8.513-.602V7.086h4.66v-1.17h-4.66V2.585h-1.163v3.333h-4.666v1.169h4.666v6.998a7.923 7.923 0 0 1-5.765 7.624v.006a6.348 6.348 0 0 0 6.35 6.35 6.35 6.35 0 0 0 6.343-6.35v-.006a7.923 7.923 0 0 1-5.765-7.624Zm15.862-6.998v6.998a7.923 7.923 0 0 1-5.765 7.624v.006a6.348 6.348 0 0 0 6.35 6.35 6.35 6.35 0 0 0 6.343-6.35v-.006a7.923 7.923 0 0 1-5.764-7.624V7.086h4.665v-1.17h-4.665V2.585h-1.164v3.333h-4.66v1.169h4.66Z"
    clip-rule="evenodd" />
</svg>
